public/icons/home.svg

<svg width="576" height="512" xmlns="http://www.w3.org/2000/svg" class="svg-inline--fa fa-home fa-w-18">

 <g>
  <title>background</title>
  <rect fill="none" id="canvas_background" height="602" width="802" y="-1" x="-1"/>
 </g>
 <g>
  <title>Layer 1</title>
  <path id="svg_1" d="m280.37,148.26l-184.37,151.85l0,163.89a16,16 0 0 0 16,16l112.06,-0.29a16,16 0 0 0 15.92,-16l0,-95.71a16,16 0 0 1 16,-16l64,0a16,16 0 0 1 16,16l0,95.64a16,16 0 0 0 16,16.05l112.02,0.31a16,16 0 0 0 16,-16l0,-164l-184.33,-151.74a12.19,12.19 0 0 0 -15.3,0zm291.23,103.21l-83.6,-68.91l0,-138.51a12,12 0 0 0 -12,-12l-56,0a12,12 0 0 0 -12,12l0,72.61l-89.53,-73.66a48,48 0 0 0 -61,0l-253.13,208.47a12,12 0 0 0 -1.6,16.9l25.5,31a12,12 0 0 0 16.91,1.63l235.22,-193.74a12.19,12.19 0 0 1 15.3,0l235.23,193.74a12,12 0 0 0 16.9,-1.6l25.5,-31a12,12 0 0 0 -1.7,-16.93z" fill="#0099ff"/>
 </g>
</svg>

<svg aria-hidden="true" focusable="false" data-prefix="fas" data-icon="home" class="svg-inline--fa fa-home fa-w-18" role="img" xmlns="http://www.w3.org/2000/svg" viewBox="0 0 576 512"><path fill="currentColor" d="M280.37 148.26L96 300.11V464a16 16 0 0 0 16 16l112.06-.29a16 16 0 0 0 15.92-16V368a16 16 0 0 1 16-16h64a16 16 0 0 1 16 16v95.64a16 16 0 0 0 16 16.05L464 480a16 16 0 0 0 16-16V300L295.67 148.26a12.19 12.19 0 0 0-15.3 0zM571.6 251.47L488 182.56V44.05a12 12 0 0 0-12-12h-56a12 12 0 0 0-12 12v72.61L318.47 43a48 48 0 0 0-61 0L4.34 251.47a12 12 0 0 0-1.6 16.9l25.5 31A12 12 0 0 0 45.15 301l235.22-193.74a12.19 12.19 0 0 1 15.3 0L530.9 301a12 12 0 0 0 16.9-1.6l25.5-31a12 12 0 0 0-1.7-16.93z"></path></svg>
